flaticon/gastronomy/apple-1.svg

<svg xmlns="http://www.w3.org/2000/svg" width="32" height="32" viewBox="0 0 24 24">
    <path d="M 19.355469 7.304688 C 17.609375 5.929688 15.136719 6.308594 13.179688 6.792969 C 12.863281 6.871094 12.539062 6.910156 12.214844 6.925781 C 12.164062 6.664062 12.101562 6.40625 12.023438 6.148438 L 13.535156 5.921875 C 15.476562 5.636719 16.972656 4.136719 17.261719 2.199219 L 17.484375 0.699219 C 17.503906 0.644531 17.511719 0.589844 17.507812 0.535156 L 17.589844 0 L 15.390625 0.328125 C 13.453125 0.617188 11.953125 2.113281 11.664062 4.050781 L 11.535156 4.9375 C 11.085938 4.074219 10.4375 3.320312 9.546875 2.84375 C 9.347656 2.738281 9.101562 2.816406 8.996094 3.011719 C 8.890625 3.210938 8.96875 3.457031 9.164062 3.5625 C 10.402344 4.222656 11.085938 5.554688 11.382812 6.898438 C 11.195312 6.875 11.007812 6.839844 10.820312 6.792969 C 8.863281 6.308594 6.386719 5.929688 4.644531 7.304688 C 3.078125 8.535156 2.328125 10.96875 2.347656 14.75 C 2.363281 17.542969 3.96875 20.761719 6.257812 22.582031 C 7.769531 23.785156 9.394531 24.234375 10.957031 23.882812 C 11.640625 23.730469 12.359375 23.730469 13.042969 23.882812 C 13.390625 23.960938 13.738281 24 14.085938 24 C 15.316406 24 16.5625 23.519531 17.742188 22.582031 C 20.027344 20.761719 21.636719 17.542969 21.652344 14.75 C 21.671875 10.96875 20.921875 8.535156 19.355469 7.304688 Z M 13.417969 5.121094 L 13.0625 5.175781 L 16.511719 1.722656 L 16.460938 2.078125 C 16.222656 3.664062 15 4.886719 13.417969 5.121094 Z M 15.511719 1.128906 L 16.039062 1.050781 L 12.390625 4.699219 L 12.46875 4.171875 C 12.703125 2.589844 13.925781 1.367188 15.511719 1.128906 Z M 17.234375 21.949219 C 16.320312 22.675781 14.882812 23.46875 13.222656 23.09375 C 12.824219 23.003906 12.410156 22.957031 12 22.957031 C 11.589844 22.957031 11.175781 23.003906 10.777344 23.09375 C 9.121094 23.46875 7.679688 22.675781 6.765625 21.949219 C 4.6875 20.296875 3.171875 17.269531 3.160156 14.746094 C 3.140625 11.230469 3.789062 9.003906 5.144531 7.941406 C 6.292969 7.039062 7.984375 6.929688 10.625 7.582031 C 10.921875 7.65625 11.21875 7.695312 11.519531 7.71875 C 11.542969 7.925781 11.558594 8.132812 11.566406 8.332031 C 11.574219 8.550781 11.753906 8.722656 11.972656 8.722656 C 11.976562 8.722656 11.980469 8.722656 11.984375 8.722656 C 12.207031 8.714844 12.382812 8.527344 12.375 8.304688 C 12.371094 8.117188 12.355469 7.925781 12.335938 7.730469 C 12.683594 7.707031 13.03125 7.667969 13.375 7.582031 C 16.015625 6.929688 17.707031 7.039062 18.855469 7.941406 C 20.210938 9.007812 20.859375 11.230469 20.839844 14.746094 C 20.828125 17.269531 19.3125 20.296875 17.234375 21.949219 Z M 17.234375 21.949219"/>
    <path d="M8.023438 8.1875C6.011719 8.1875 4.375 10.003906 4.375 12.242188 4.375 12.464844 4.554688 12.644531 4.78125 12.644531 5.003906 12.644531 5.1875 12.464844 5.1875 12.242188 5.1875 10.453125 6.460938 8.996094 8.023438 8.996094 8.25 8.996094 8.429688 8.816406 8.429688 8.589844 8.429688 8.367188 8.25 8.1875 8.023438 8.1875zM13.164062 8.304688C12.835938 8.632812 12.398438 8.816406 11.933594 8.816406 11.46875 8.816406 11.03125 8.632812 10.703125 8.304688 10.546875 8.144531 10.289062 8.144531 10.128906 8.304688 9.972656 8.464844 9.972656 8.71875 10.128906 8.878906 10.613281 9.359375 11.253906 9.625 11.933594 9.625 12.617188 9.625 13.257812 9.359375 13.738281 8.878906 13.898438 8.71875 13.898438 8.460938 13.738281 8.304688 13.582031 8.144531 13.324219 8.144531 13.164062 8.304688zM13.164062 8.304688"/>
</svg>

<svg xmlns="http://www.w3.org/2000/svg" width="32" height="32" viewBox="0 0 24 24">
    <path d="M19.355 7.305c-1.746-1.375-4.218-.996-6.175-.512-.317.078-.64.117-.965.133a7.778 7.778 0 0 0-.192-.778l1.512-.226a4.396 4.396 0 0 0 3.727-3.723l.222-1.5a.399.399 0 0 0 .024-.164L17.59 0l-2.2.328a4.404 4.404 0 0 0-3.726 3.723l-.129.886c-.45-.863-1.098-1.617-1.988-2.093a.41.41 0 0 0-.55.168.41.41 0 0 0 .167.55c1.238.66 1.922 1.993 2.219 3.336a4.744 4.744 0 0 1-.563-.105c-1.957-.484-4.433-.863-6.175.512-1.567 1.23-2.317 3.664-2.297 7.445.015 2.793 1.62 6.012 3.91 7.832 1.512 1.203 3.137 1.652 4.699 1.3a4.817 4.817 0 0 1 2.086 0c.348.079.695.118 1.043.118 1.23 0 2.476-.48 3.656-1.418 2.285-1.82 3.895-5.039 3.91-7.832.02-3.781-.73-6.215-2.297-7.445zM13.418 5.12l-.355.055 3.449-3.453-.051.355a3.596 3.596 0 0 1-3.043 3.043zm2.094-3.992l.527-.078-3.648 3.648.078-.527a3.596 3.596 0 0 1 3.043-3.043zm1.722 20.82c-.914.727-2.351 1.52-4.011 1.145a5.586 5.586 0 0 0-2.446 0c-1.656.375-3.097-.418-4.011-1.145-2.079-1.652-3.594-4.68-3.606-7.203-.02-3.516.63-5.742 1.985-6.805 1.148-.902 2.84-1.011 5.48-.359.297.074.594.113.895.137.023.207.039.414.046.613.008.219.188.39.407.39h.011a.405.405 0 0 0 .391-.417 7.334 7.334 0 0 0-.04-.575 5.894 5.894 0 0 0 1.04-.148c2.64-.652 4.332-.543 5.48.36 1.356 1.066 2.004 3.288 1.985 6.804-.012 2.524-1.527 5.55-3.606 7.203zm0 0"/>
    <path d="M8.023 8.188c-2.011 0-3.648 1.816-3.648 4.054 0 .223.18.403.406.403.223 0 .407-.18.407-.403 0-1.789 1.273-3.246 2.835-3.246a.403.403 0 1 0 0-.809zm0 0M13.164 8.305a1.732 1.732 0 0 1-2.46 0 .403.403 0 0 0-.575 0 .41.41 0 0 0 0 .574c.484.48 1.125.746 1.805.746.683 0 1.324-.266 1.804-.746a.403.403 0 0 0 0-.574.403.403 0 0 0-.574 0zm0 0"/>
</svg>
